X:1
T:Title
%%score { ( 1 2 ) | ( 3 4 ) }
L:1/8
M:6/8
K:Eb
V:1 treble nm="Grand Piano"
V:2 treble 
V:3 bass 
V:4 bass 
V:1
 z3 z z[Q:1/4=78] z/ F/ | G2 G [GB]AG | G2 F E2 E | E2 E A2 A | G3- G2 z/ F/ | %5
 [B,EG]2 [B,EG] [GB][FA][B,EG] | D3 z2 G | Fcc Fcd | z3 z2 B | B2 B [CGc]2 [C=EB] | BAG A2 [FA] | %11
 [FA]2 [Ac] [B,GB]2 [B,FA] | [FA]3 [EG]2 [GB] | [Ge]2 [GB] [GB]AG | G2 [DF] [G,CE]2 [G,CE] | %15
 .[A,CF]2 [CFA] .[B,EG]2 F | B6 | [Ge]2 [GB] [GB]AG | G2 [DF] [G,CE]2 [G,CE] | %19
 .[A,CF]2 [CFA] .[B,EG]2 [B,DF] | [E,G,E]3- [E,G,E]2[K:treble] B | B6 | B3 z3 | z3 .G3 | %24
[M:5/8] E-E- E3 |] %25
V:2
 z3 z2 E | x6 | x6 | x6 | z3 z2 E | z3 .B,3 | [=B,G]2 F E2 z/ B,/ | x6 | B3- B2 z/ A,/ | x6 | x6 | %11
 x6 | x6 | x6 | x6 | x6 | z2 E D2 [AB] | x6 | x6 | x6 | x5[K:treble] x | z2 D E2 B | z2 =E ABc | %23
 BeE z B,F |[M:5/8] x5 |] %25
V:3
 z3 z2 G,/A,/ | [E,B,E]2 [E,B,E] B,-[F,B,F][G,B,E] | [A,B,D]3 [G,B,]2 [G,B,] | %3
 [A,C]2 [A,C] [A,=B,E]2 [A,B,E] | [E,B,E]3- [E,B,E]2 G,/A,/ | E,2 E, E,F,G, | %6
 G,2 G, [C,G,C]2[K:treble] [CE] | [A,CE]2 [A,CE] [=A,CE]2 [F,A,F] | [B,D]3- [B,D]2 [B,D] | %9
 [G,C=E]2 [G,CE] =E,D,C, | .C3 z3 | [D,B,]2 [D,B,] B,,C,D, | [E,B,]3 [E,C]2 [E,E] | %13
 [E,B,]2 [E,E] [E,E][F,B,F][G,B,E] | [G,=B,D]2 [=B,,G,] C,2 _B,, | z GF,, B,,B,[A,B,D] | %16
 [G,B,E]2 [G,B,] [F,B,]2 [F,D] | [E,B,]2 [E,E] [E,E][F,B,F][G,B,E] | [G,=B,D]2 [=B,,G,] C,2 _B,, | %19
 z GF,, B,,B,A, | E,,6 | z2 [A,B,] .[G,B,]3 | z2 [C,C] [F,CF]2 [A,B,D] | %23
 [G,B,E]2 [A,C] .[B,E]2 [B,,A,B,] |[M:5/8] [E,G,B,]-[E,G,B,]- [E,G,B,]3 |] %25
V:4
 z3 z2 E, | z3 .E,3 | x6 | x6 | z3 z2 E, | x6 | x5[K:treble] x | x6 | x6 | x6 | %10
 [F,F]2- [F,B,F] [F,A,F]2 [E,C] | x6 | x6 | x6 | x6 | .A,,3 z3 | x6 | x6 | x6 | .A,,3 z3 | x6 | %21
 x6 | x6 | x6 |[M:5/8] x5 |] %25

